public/svg/chart2.svg

<svg width="81" height="80" viewBox="0 0 81 80" fill="none" xmlns="http://www.w3.org/2000/svg">
<rect x="0.5" width="80" height="80" rx="40" fill="#F4F7FF"/>
<path d="M28.8333 51.6667H53.8333C54.7538 51.6667 55.5 52.4129 55.5 53.3333C55.5 54.2538 54.7538 55 53.8333 55H27.1667C26.2462 55 25.5 54.2538 25.5 53.3333V26.6667C25.5 25.7462 26.2462 25 27.1667 25C28.0871 25 28.8333 25.7462 28.8333 26.6667V51.6667Z" fill="#1B5BF7"/>
<path opacity="0.3" d="M35.0496 44.473C34.42 45.1445 33.3653 45.1785 32.6938 44.549C32.0222 43.9194 31.9882 42.8647 32.6178 42.1932L38.8678 35.5265C39.4766 34.8771 40.4884 34.8207 41.1655 35.3986L46.0984 39.608L52.5255 31.467C53.0959 30.7445 54.1439 30.6212 54.8664 31.1916C55.5889 31.762 55.7122 32.81 55.1418 33.5325L47.6418 43.0325C47.056 43.7745 45.9709 43.8812 45.2518 43.2676L40.2117 38.9667L35.0496 44.473Z" fill="#1B5BF7"/>
</svg>

<svg xmlns="http://www.w3.org/2000/svg" width="81" height="80" fill="none" xmlns:v="https://vecta.io/nano"><rect x=".5" width="80" height="80" rx="40" fill="#f4f7ff"/><g fill="#1b5bf7"><path d="M28.833 51.667h25c.92 0 1.667.746 1.667 1.667S54.754 55 53.833 55H27.167c-.92 0-1.667-.746-1.667-1.667V26.667c0-.92.746-1.667 1.667-1.667s1.667.746 1.667 1.667v25z"/><path opacity=".3" d="M35.05 44.473c-.63.672-1.684.706-2.356.076s-.706-1.684-.076-2.356l6.25-6.667c.609-.649 1.621-.706 2.298-.128l4.933 4.209 6.427-8.141c.57-.723 1.618-.846 2.341-.275s.846 1.618.275 2.341l-7.5 9.5c-.586.742-1.671.849-2.39.235l-5.04-4.301-5.162 5.506z"/></g></svg>
